src/resources/icons/scalable/actions/cut-large-symbolic.svg

<?xml version="1.0" encoding="UTF-8"?>
<svg height="32" viewBox="0 0 32 32" width="32" xmlns="http://www.w3.org/2000/svg"><path d="m 24.280293,2.0062078 c -0.481458,-0.00805 -0.958881,0.2164956 -1.25586,0.640625 C 21.160613,5.3086441 19.074164,8.2896442 17.175781,11 h 3.664063 L 25.481465,4.3675359 C 25.956631,3.6889279 25.792885,2.7528581 25.114277,2.2776921 24.859799,2.0995049 24.569167,2.011036 24.280293,2.0062078 Z M 6,4 c -3.3137085,0 -6,2.6862915 -6,6 0,3.313708 2.6862915,6 6,6 2.469539,9.21e-4 5.044744,0.0019 7.673828,0.002 -1.574514,2.248607 -3.116145,4.451425 -4.5917968,6.560547 -1.9006649,2.714431 -1.2417751,6.454804 1.4726568,8.355469 2.71443,1.900665 6.456756,1.241776 8.357421,-1.472657 1.900665,-2.71443 1.239822,-6.456756 -1.474609,-8.357421 -0.862956,-0.603936 -1.868654,-0.969037 -2.917969,-1.060547 L 17.337891,16.002 C 21.551311,16.001619 26.332337,16 30.492608,16 c 0.828427,0 1.5,-0.671573 1.5,-1.5 0,-0.828427 -0.671573,-1.5 -1.5,-1.5 H 24.71875 19.439453 15.775391 15 11.195312 C 11.722219,12.087966 11.999744,11.053296 12,10 12,6.6862915 9.3137085,4 6,4 Z m 0,2 c 2.209139,0 4,1.790861 4,4 0,2.209139 -1.790861,4 -4,4 C 3.790861,14 2,12.209139 2,10 2,7.790861 3.790861,6 6,6 Z m 8.066406,16.003906 c 0.770332,0.01288 1.546002,0.24749 2.22461,0.722656 1.809621,1.26711 2.249531,3.760692 0.982422,5.570313 -1.26711,1.80962 -3.760693,2.249532 -5.570313,0.982422 -1.809621,-1.26711 -2.2495316,-3.760692 -0.982422,-5.570313 0.791944,-1.131013 2.061816,-1.726537 3.345703,-1.705078 z" fill="#222222"/></svg>

<svg
        xmlns='http://www.w3.org/2000/svg'
        xmlns:svg='http://www.w3.org/2000/svg'
        width='32'
        height='32'
        viewBox='0 0 32 32'>
  <path
          clip-path='none'
          fill='url(#gpa:foreground) rgb(0,0,0)'
          fill-opacity='1'
          fill-rule='nonzero'
          d='M 24.2803 2.00621 C 23.7988 1.99816, 23.3214 2.2227, 23.0244 2.64683 C 21.1606 5.30864, 19.0742 8.28964, 17.1758 11 L 20.8398 11 L 25.4815 4.36754 C 25.9566 3.68893, 25.7929 2.75286, 25.1143 2.27769 C 24.8598 2.0995, 24.5692 2.01104, 24.2803 2.00621 Z M 6 4 C 2.68629 4, 0 6.68629, 0 10 C 0 13.3137, 2.68629 16, 6 16 L 13.6738 16.002 L 9.08203 22.5625 C 7.18137 25.277, 7.84026 29.0174, 10.5547 30.918 C 13.2691 32.8187, 17.0114 32.1598, 18.9121 29.4454 C 20.8128 26.7309, 20.1519 22.9886, 17.4375 21.0879 C 16.5745 20.484, 15.5688 20.1189, 14.5195 20.0274 L 17.3379 16.002 C 21.5513 16.0016, 26.3323 16, 30.4926 16 C 31.321 16, 31.9926 15.3284, 31.9926 14.5 C 31.9926 13.6716, 31.321 13, 30.4926 13 L 24.7188 13 L 19.4395 13 L 15.7754 13 L 15 13 L 11.1953 13 C 11.7222 12.088, 11.9997 11.0533, 12 10 C 12 6.68629, 9.31371 4, 6 4 Z M 6 6 C 8.20914 6, 10 7.79086, 10 10 C 10 12.2091, 8.20914 14, 6 14 C 3.79086 14, 2 12.2091, 2 10 C 2 7.79086, 3.79086 6, 6 6 Z M 14.0664 22.0039 C 14.8367 22.0168, 15.6124 22.2514, 16.291 22.7266 C 18.1006 23.9937, 18.5405 26.4873, 17.2734 28.2969 C 16.0063 30.1065, 13.5127 30.5464, 11.7031 29.2793 C 9.8935 28.0122, 9.45359 25.5186, 10.7207 23.709 C 11.5126 22.578, 12.7825 21.9824, 14.0664 22.0039 Z'
          class='foreground foreground-fill'>
  </path>
</svg>
